X: 2
T: Fisher's
R: hornpipe
M: 4/4
L: 1/8
K: Fmaj
c2|fcAc BdcB|AcAc BdcB|AcFc BdGd|AcFA G2 (3cde|fcAc BdcB|AcFc BdcB|ABcd efge|f2a2 f2:||:ef|gece gebg|afcf afba|gece gaba|gfed c2Bc|dBFB dBfd|cAFA cAfc|dfed cBAG|F2A2 F2:||


Tune 872	Setting 14047

